X:189
T:Chamber’s Lilt. JaW.189
M:6/8
L:1/8
Q:3/8=110
C:”A Reel Or Jig”
S:James Winder Ms, Lancashire, 1835-41
R:.Jig
O:England
A:Wyresdale,Lancashire
N:Very Odd….
Z:vmp.Chris Partington, Aug 2004
K:D
“_Key Sig as in MS”G>AG A2c|(B/c/dB) cec|G>AG A2c|(B/c/dB) c3:|!
|:fdf ecA|fdf ece|(f/g/af)e3|G>AG A2c|!
(B/c/dB) cec|G>AG A2c|(B/c/dB)|c3:|

